melody-of-light/img/icons/icomoon/cart.svg

<svg width="18" height="18" viewBox="0 0 18 18" fill="none" xmlns="http://www.w3.org/2000/svg">
<path fill-rule="evenodd" clip-rule="evenodd" d="M4.50072 14.1834C3.81957 14.1834 3.26738 14.7356 3.26738 15.4167C3.26738 16.0979 3.81957 16.6501 4.50072 16.6501C5.18187 16.6501 5.73405 16.0979 5.73405 15.4167C5.73405 14.7356 5.18187 14.1834 4.50072 14.1834ZM2.06738 15.4167C2.06738 14.0728 3.15682 12.9834 4.50072 12.9834C5.84461 12.9834 6.93405 14.0728 6.93405 15.4167C6.93405 16.7606 5.84461 17.8501 4.50072 17.8501C3.15682 17.8501 2.06738 16.7606 2.06738 15.4167Z" fill="#212123"/>
<path fill-rule="evenodd" clip-rule="evenodd" d="M14.5837 14.1834C13.9026 14.1834 13.3504 14.7356 13.3504 15.4167C13.3504 16.0979 13.9026 16.6501 14.5837 16.6501C15.2649 16.6501 15.8171 16.0979 15.8171 15.4167C15.8171 14.7356 15.2649 14.1834 14.5837 14.1834ZM12.1504 15.4167C12.1504 14.0728 13.2398 12.9834 14.5837 12.9834C15.9276 12.9834 17.0171 14.0728 17.0171 15.4167C17.0171 16.7606 15.9276 17.8501 14.5837 17.8501C13.2398 17.8501 12.1504 16.7606 12.1504 15.4167Z" fill="#212123"/>
<path fill-rule="evenodd" clip-rule="evenodd" d="M0.234375 0.749902C0.234375 0.418532 0.503004 0.149902 0.834375 0.149902H2.66771C2.9663 0.149902 3.21945 0.36946 3.26168 0.66505L5.02142 12.9832H14.5844C14.9157 12.9832 15.1844 13.2519 15.1844 13.5832C15.1844 13.9146 14.9157 14.1832 14.5844 14.1832H4.50104C4.20245 14.1832 3.9493 13.9637 3.90707 13.6681L2.14733 1.3499H0.834375C0.503004 1.3499 0.234375 1.08127 0.234375 0.749902Z" fill="#212123"/>
<path fill-rule="evenodd" clip-rule="evenodd" d="M2.52666 2.54479C2.54799 2.21411 2.83336 1.96333 3.16404 1.98466L17.3724 2.90133C17.5392 2.9121 17.694 2.99199 17.7994 3.12177C17.9049 3.25154 17.9514 3.41942 17.9277 3.58494L17.011 10.0016C16.9688 10.2972 16.7157 10.5168 16.4171 10.5168H4.50041C4.16904 10.5168 3.90041 10.2481 3.90041 9.91675C3.90041 9.58538 4.16904 9.31675 4.50041 9.31675H15.8967L16.6481 4.0571L3.08678 3.18218C2.7561 3.16084 2.50532 2.87547 2.52666 2.54479Z" fill="#212123"/>
</svg>

<svg width="18" height="18" fill="none" xmlns="http://www.w3.org/2000/svg"><path fill-rule="evenodd" clip-rule="evenodd" d="M4.5 14.183a1.233 1.233 0 100 2.467 1.233 1.233 0 000-2.467zm-2.433 1.234a2.433 2.433 0 114.867 0 2.433 2.433 0 01-4.867 0zm12.517-1.234a1.233 1.233 0 100 2.467 1.233 1.233 0 000-2.467zm-2.434 1.234a2.433 2.433 0 114.867 0 2.433 2.433 0 01-4.867 0z" fill="#212123"/><path fill-rule="evenodd" clip-rule="evenodd" d="M.234.75a.6.6 0 01.6-.6h1.834a.6.6 0 01.594.515l1.76 12.318h9.562a.6.6 0 010 1.2H4.501a.6.6 0 01-.594-.515L2.147 1.35H.834a.6.6 0 01-.6-.6z" fill="#212123"/><path fill-rule="evenodd" clip-rule="evenodd" d="M2.527 2.545a.6.6 0 01.637-.56l14.208.916a.6.6 0 01.556.684l-.917 6.417a.6.6 0 01-.594.515H4.5a.6.6 0 010-1.2h11.397l.751-5.26-13.561-.875a.6.6 0 01-.56-.637z" fill="#212123"/></svg>
